X: 35105
T: Rolling Waves, The
R: jig
M: 6/8
K: Dmajor
FGF DED|D2d cAG|FGF DED|A2F GFE|
FGF DED|D2d cAG|FGF GFG|A2F GFE:|
D2d cAd|cAd cAG|F2d cAG|A2F GFE|
D2d cde|fed cAG|FGF GFG|A2F GFE:|

